src/twitter.svg

<svg viewBox="0 0 16 16" fill="none" xmlns="http://www.w3.org/2000/svg"><path d="M5.4 13.74C7.56164 13.7427 9.63623 12.8886 11.1694 11.3648C12.7026 9.84095 13.5694 7.77163 13.58 5.61001C13.5855 5.57355 13.5855 5.53647 13.58 5.50001V5.12001C14.1388 4.70851 14.6197 4.20054 15 3.62001C14.4771 3.85781 13.9205 4.01299 13.35 4.08001C13.9496 3.71654 14.3972 3.14813 14.61 2.48001C14.0462 2.81234 13.4312 3.04888 12.79 3.18001C12.2768 2.63434 11.5693 2.31267 10.8208 2.2846C10.0722 2.25652 9.34265 2.52431 8.79 3.03001C8.40658 3.37362 8.12191 3.81343 7.96544 4.30393C7.80897 4.79444 7.78638 5.31785 7.9 5.82001C6.75374 5.76075 5.63278 5.46092 4.61 4.94001C3.59571 4.41907 2.70553 3.68577 2 2.79001C1.6291 3.42822 1.51368 4.18321 1.67695 4.90307C1.84022 5.62294 2.27006 6.25426 2.88 6.67001C2.42333 6.65232 1.97755 6.52544 1.58 6.30001C1.57937 6.96541 1.80758 7.61079 2.22636 8.12789C2.64513 8.64499 3.22899 9.00234 3.88 9.14001C3.45632 9.25668 3.01139 9.27379 2.58 9.19001C2.76745 9.76005 3.12655 10.2582 3.60811 10.6162C4.08966 10.9743 4.67013 11.1747 5.27 11.19C4.67669 11.6711 3.99363 12.0293 3.26056 12.2439C2.5275 12.4585 1.75907 12.5252 1 12.44C2.31239 13.2847 3.83927 13.7358 5.4 13.74Z" fill="#111111"/></svg>

<svg viewBox="0 0 16 16" fill="none" xmlns="http://www.w3.org/2000/svg"><path d="M5.4 13.74a8.17 8.17 0 0 0 8.18-8.13.369.369 0 0 0 0-.11v-.38A5.831 5.831 0 0 0 15 3.62a5.55 5.55 0 0 1-1.65.46 2.9 2.9 0 0 0 1.26-1.6 5.92 5.92 0 0 1-1.82.7 2.85 2.85 0 0 0-4-.15 2.89 2.89 0 0 0-.89 2.79 8.18 8.18 0 0 1-3.29-.88A7.94 7.94 0 0 1 2 2.79a2.92 2.92 0 0 0 .88 3.88 2.86 2.86 0 0 1-1.3-.37 2.9 2.9 0 0 0 2.3 2.84 2.85 2.85 0 0 1-1.3.05 2.91 2.91 0 0 0 2.69 2A5.76 5.76 0 0 1 1 12.44a8.17 8.17 0 0 0 4.4 1.3Z" fill="#111111"/></svg>
